X:9
T:The Lady Frances Nevill's Delight - Alternative Part 2
%%staffscale 0.8
M:C
L:1/8
K:Bb
%%score 1 2
V:1 clef-treble
V:2 clef-bass octave=-1
[V:1]AB|[FAc]2c2 c2[FBd]2|[FAc][GB][FA][GB] [Ac]2F2|[EG]ABc A3G & x4[C^F]2x2|
w:Like a no-ble soul, &c.|||
[V:2]z2|F6B,2|F,6F2|C4D4|
[V:1][B,G]6GA|[GB]2[^Fc]2 [Gd]2[Ec]d|[DGB]2[C^FA]B [B,G]2DE|[B,F]2[B,G]2 [A,C]3B,|B,6||
[V:2]G6z2|G,2A,2 B,2C2|D2D2 E2B,C|D2E2 [F,E]4|[B,D]6||
